X: 201
T: No_59_Calusa_Hunting_Dance_Song_(c).krn
N: Derived from No_59_Calusa_Hunting_Dance_Song_(c).krn
%%abc-version 2.0
%%abcx-abcm2ps-target-version 5.9.1 (29 Sep 2008)
%%abc-creator hum2abc beta
%%abcx-conversion-date 2019/03/15 08:38:45
%%humdrum-veritas 2278218909
%%humdrum-veritas-data 311473522
%%linebreak <none>
%%barnumbers 0
L: 1/4
M: 2/4
K: Eb clef=bass
[K:clef=bass][M:2/4]zB,/B,/ | 
B,3/B,/ | 
B,2- | 
B,B, | 
B,2- | 
B,G, ||  
[M:3/4]G,2-G,/E,/ ||  
[M:2/4]G,2- | 
G,B, ||  
[M:3/4]B,G,3/A,/ ||  
[M:2/4]A,2- | 
A,G, | 
E,2- | 
E,B,,/B,,/ ||  
[M:3/4]E,2z | 
B,,2B,, | 
B,,2E, | 
E,2E, | 
F,A,/F,/E, | 
D,B,,/B,,/B,, ||  
[M:2/4]B,,B,, | 
zB,, ||  
[M:3/4]G,,G,,z/ G,,/ | 
G,,2z |]  



